images/pingy.svg

<?xml version="1.0" encoding="UTF-8"?>
<svg width="31px" height="45px" viewBox="0 0 31 45" version="1.1" xmlns="http://www.w3.org/2000/svg" xmlns:xlink="http://www.w3.org/1999/xlink">
    <!-- Generator: Sketch 46.2 (44496) - http://www.bohemiancoding.com/sketch -->
    <title>website-icon</title>
    <desc>Created with Sketch.</desc>
    <defs>
        <path d="M18.2132404,34.8651163 L8.20515679,34.8651163 C7.38197352,34.8651163 6.74460209,35.6692093 7.01862857,36.5426977 C7.18374355,37.0695814 7.71100767,37.3953488 8.25777282,37.3953488 L8.27653798,37.3953488 C8.99899652,37.3953488 9.65954843,37.8083721 9.98287944,38.4618605 L9.99603345,38.4884651 C10.4320474,39.3689302 11.3221045,39.9255814 12.296053,39.9255814 L14.1225282,39.9255814 C15.0964767,39.9255814 15.9865338,39.3689302 16.4219038,38.4884651 L16.4350578,38.4618605 C16.7584808,37.8084651 17.4189408,37.3953488 18.1413993,37.3953488 L18.1601645,37.3953488 C18.7068376,37.3953488 19.2341937,37.0695814 19.3993087,36.5426977 C19.6737951,35.6691163 19.0364237,34.8651163 18.2132404,34.8651163 L18.2132404,34.8651163 Z M19.4643429,31.6651163 C19.4643429,32.3634419 18.9038718,32.9302326 18.2132404,32.9302326 L8.20515679,32.9302326 C7.51461742,32.9302326 6.95414634,32.3634419 6.95414634,31.6651163 C6.95414634,30.9914419 7.47644321,30.4455814 8.13322369,30.4075349 C7.35446969,23.2887442 0.0735888502,21.7029767 0.0735888502,13.3209302 C0.0735888502,5.98455814 5.95462578,0.0372093023 13.2091986,0.0372093023 C20.4637714,0.0372093023 26.3448084,5.98455814 26.3448084,13.3209302 C26.3448084,21.7028837 19.0639275,23.2887442 18.2851735,30.4076279 C18.941954,30.4455814 19.4643429,30.9914419 19.4643429,31.6651163 L19.4643429,31.6651163 Z" id="path-1"></path>
    </defs>
    <g id="Page-1" stroke="none" stroke-width="1" fill="none" fill-rule="evenodd">
        <g id="website-icon" transform="translate(2.000000, 2.500000)">
            <g id="Shape">
                <use fill="#333333" fill-rule="evenodd" xlink:href="#path-1"></use>
                <path stroke="#FFFFFF" stroke-width="2" d="M18.2132404,33.8651163 C19.734755,33.8651163 20.8233339,35.3466005 20.3535492,36.8417379 C20.0570669,37.7878162 19.1463493,38.3953488 18.1601645,38.3953488 L18.1413993,38.3953488 C17.8005589,38.3953488 17.4866413,38.5915973 17.3314751,38.9050716 L17.3183025,38.9317139 C16.7147362,40.1523285 15.4777624,40.9255814 14.1225282,40.9255814 L12.296053,40.9255814 C10.9410412,40.9255814 9.70421718,40.1525782 9.09961621,38.9316763 L9.08658756,38.9053251 C8.93134334,38.591559 8.6174551,38.3953488 8.27653798,38.3953488 L8.25777282,38.3953488 C7.27152094,38.3953488 6.36087557,37.7878328 6.06447925,36.8420287 C5.59525493,35.3463266 6.6838663,33.8651163 8.20515679,33.8651163 L18.2132404,33.8651163 Z M7.02737646,29.7388716 C6.66105603,27.7239398 5.73623518,26.2311534 3.63180497,23.6898772 C3.49982165,23.5305969 3.49982165,23.5305969 3.36698185,23.3703353 C0.236483548,19.5918502 -0.92641115,17.3132952 -0.92641115,13.3209302 C-0.92641115,5.43476771 5.39981559,-0.962790698 13.2091986,-0.962790698 C21.0185816,-0.962790698 27.3448084,5.43476771 27.3448084,13.3209302 C27.3448084,17.31325 26.1819307,19.5917686 23.0514188,23.370312 C22.9186183,23.5305281 22.9186183,23.5305281 22.7866736,23.6897635 C20.6821992,26.2311207 19.757363,27.7239319 19.3910314,29.7388929 C20.0367518,30.1371794 20.4643429,30.8524809 20.4643429,31.6651163 C20.4643429,32.9132579 19.4586562,33.9302326 18.2132404,33.9302326 L8.20515679,33.9302326 C6.95980723,33.9302326 5.95414634,32.9132323 5.95414634,31.6651163 C5.95414634,30.8524889 6.38168781,30.1371895 7.02737646,29.7388716 Z"></path>
            </g>
            <path d="M18.2132404,34.8651163 L8.20515679,34.8651163 C7.38197352,34.8651163 6.74460209,35.6692093 7.01862857,36.5426977 C7.18374355,37.0695814 7.71100767,37.3953488 8.25777282,37.3953488 L8.27653798,37.3953488 C8.99899652,37.3953488 9.65954843,37.8083721 9.98287944,38.4618605 L9.99603345,38.4884651 C10.4320474,39.3689302 11.3221045,39.9255814 12.296053,39.9255814 L14.1225282,39.9255814 C15.0964767,39.9255814 15.9865338,39.3689302 16.4219038,38.4884651 L16.4350578,38.4618605 C16.7584808,37.8084651 17.4189408,37.3953488 18.1413993,37.3953488 L18.1601645,37.3953488 C18.7068376,37.3953488 19.2341937,37.0695814 19.3993087,36.5426977 C19.6737951,35.6691163 19.0364237,34.8651163 18.2132404,34.8651163 L18.2132404,34.8651163 Z M19.4643429,31.6651163 C19.4643429,32.3634419 18.9038718,32.9302326 18.2132404,32.9302326 L8.20515679,32.9302326 C7.51461742,32.9302326 6.95414634,32.3634419 6.95414634,31.6651163 C6.95414634,30.9914419 7.47644321,30.4455814 8.13322369,30.4075349 C7.35446969,23.2887442 0.0735888502,21.7029767 0.0735888502,13.3209302 C0.0735888502,5.98455814 5.95462578,0.0372093023 13.2091986,0.0372093023 C20.4637714,0.0372093023 26.3448084,5.98455814 26.3448084,13.3209302 C26.3448084,21.7028837 19.0639275,23.2887442 18.2851735,30.4076279 C18.941954,30.4455814 19.4643429,30.9914419 19.4643429,31.6651163 L19.4643429,31.6651163 Z" id="Shape-Copy" fill="#333333"></path>
            <path d="M19.6748601,14.7845305 L14.069291,3.46725365 C13.9882403,3.3221351 13.8816979,3.25581395 13.7601219,3.25581395 C13.5764506,3.25581395 13.4280756,3.40487237 13.4280756,3.58938962 C13.4280756,3.59267285 13.4365728,3.66227722 13.4365728,3.66227722 L14.380421,11.3141616 C14.3908791,11.4060919 14.39284,11.4389242 14.39284,11.4724131 C14.39284,12.0246515 13.9457541,12.4718268 13.3940866,12.4718268 L8.16370363,12.4770799 C7.39306861,12.5374913 6.78518856,13.1829733 6.78518856,13.9709474 C6.78518856,14.2033997 6.83813295,14.4233758 6.93356358,14.6197126 L12.5776971,26.0164436 L12.6129934,26.0899878 C12.6750887,26.1799482 12.7777093,26.2383896 12.8907881,26.2383896 C13.0744593,26.2383896 13.2247953,26.0899878 13.2247953,25.9048139 C13.2176053,25.8378361 12.2776789,18.2253504 12.2776789,18.2253504 C12.2665671,18.1734755 12.2600308,18.1202872 12.2580699,18.0657857 C12.256109,17.4688954 12.703195,17.0210635 13.2548624,17.0210635 L18.4904745,17.0158103 C19.2611095,16.9560556 19.8689895,16.3105736 19.8689895,15.5225995 C19.8689895,15.316413 19.8284642,15.1200761 19.7526426,14.9414687 C19.7526426,14.9408121 19.6748601,14.7845305 19.6748601,14.7845305 Z" id="Feed" fill="#FFF199" transform="translate(13.327089, 14.747102) scale(-1, 1) translate(-13.327089, -14.747102) "></path>
        </g>
    </g>
</svg>

<svg width="31" height="45" xmlns="http://www.w3.org/2000/svg" xmlns:xlink="http://www.w3.org/1999/xlink"><defs><path d="M18.213 34.865H8.205c-.823 0-1.46.804-1.186 1.678.165.527.692.852 1.239.852h.019c.722 0 1.383.413 1.706 1.067l.013.026a2.57 2.57 0 0 0 2.3 1.438h1.827c.973 0 1.864-.557 2.299-1.438l.013-.026a1.907 1.907 0 0 1 1.706-1.067h.02c.546 0 1.073-.325 1.238-.852.275-.874-.363-1.678-1.186-1.678zm1.251-3.2c0 .698-.56 1.265-1.25 1.265H8.204c-.69 0-1.25-.567-1.25-1.265 0-.674.521-1.22 1.178-1.257-.779-7.12-8.06-8.705-8.06-17.087C.074 5.985 5.956.037 13.21.037c7.255 0 13.136 5.948 13.136 13.284 0 8.382-7.281 9.968-8.06 17.087.657.038 1.18.583 1.18 1.257z" id="a"/></defs><g fill="none" fill-rule="evenodd"><g transform="translate(2 2.5)"><use fill="#333" xlink:href="#a"/><path stroke="#FFF" stroke-width="2" d="M18.213 33.865c1.522 0 2.61 1.482 2.14 2.977-.296.946-1.207 1.553-2.193 1.553h-.019a.906.906 0 0 0-.81.51l-.013.027a3.568 3.568 0 0 1-3.195 1.994h-1.827A3.57 3.57 0 0 1 9.1 38.932l-.013-.027a.906.906 0 0 0-.81-.51h-.02c-.985 0-1.896-.607-2.193-1.553-.469-1.496.62-2.977 2.141-2.977h10.008zM7.027 29.74c-.366-2.015-1.29-3.508-3.395-6.05l-.265-.319C.237 19.592-.926 17.313-.926 13.32-.926 5.436 5.4-.962 13.209-.962c7.81 0 14.136 6.398 14.136 14.284 0 3.992-1.163 6.27-4.294 10.05l-.264.319c-2.105 2.541-3.03 4.034-3.396 6.049a2.26 2.26 0 0 1 1.073 1.926 2.259 2.259 0 0 1-2.25 2.265H8.204a2.259 2.259 0 0 1-2.25-2.265 2.26 2.26 0 0 1 1.072-1.926z"/></g><path d="M20.213 37.365H10.205c-.823 0-1.46.804-1.186 1.678.165.527.692.852 1.239.852h.019c.722 0 1.383.413 1.706 1.067l.013.026a2.57 2.57 0 0 0 2.3 1.438h1.827c.973 0 1.864-.557 2.299-1.438l.013-.026a1.907 1.907 0 0 1 1.706-1.067h.02c.546 0 1.073-.325 1.238-.852.275-.874-.363-1.678-1.186-1.678zm1.251-3.2c0 .698-.56 1.265-1.25 1.265h-10.01c-.69 0-1.25-.567-1.25-1.265 0-.674.521-1.22 1.178-1.257-.779-7.12-8.06-8.705-8.06-17.087 0-7.336 5.882-13.284 13.136-13.284 7.255 0 13.136 5.948 13.136 13.284 0 8.382-7.281 9.968-8.06 17.087.657.038 1.18.583 1.18 1.257z" fill="#333"/><path d="M8.98 17.285l5.605-11.318c.08-.145.187-.211.31-.211.183 0 .331.149.331.333l-.008.073-.944 7.652a.999.999 0 0 0 .986 1.158l5.23.005a1.498 1.498 0 0 1 1.23 2.143l-5.644 11.396-.035.074a.334.334 0 0 1-.612-.185l.947-7.68a.918.918 0 0 0 .02-.16c.002-.596-.445-1.044-.997-1.044l-5.235-.005a1.497 1.497 0 0 1-1.262-2.075l.077-.156z" fill="#FFF199"/></g></svg>
